!!!COA:	Josquin des Prez
!!!CDT:	~1450-1521/08/27
!!!COM: Josquin d'Ascanio
!!!OTL@@FRE: In te, domine, speravi
!!!AGN:	Chanson
!!!SCT:	NJE 28.18
!!!SCA:	New Josquin Edition 28.18
!!!voices:	4
**kern	**kern	**kern	**kern
*staff4	*staff3	*staff2	*staff1
*Ivox	*Ivox	*Ivox	*Ivox
*I"Bassus	*I"Tenor	*I"Altus	*I"Superius
*I'B	*I'T	*I'A	*I'S
*clefF4	*clefGv2	*clefGv2	*clefG2
*>[A,A,B]	*>[A,A,B]	*>[A,A,B]	*>[A,A,B]
*>A	*>A	*>A	*>A
*k[b-]	*k[b-]	*k[b-]	*k[b-]
*M2/1	*M2/1	*M2/1	*M2/1
*met(C|)	*met(C|)	*met(C|)	*met(C|)
=1-	=1-	=1-	=1-
1F	1c	1f	1a
1F	1c	1f	1a
=2	=2	=2	=2
1BB-	2.d\	2.f\	2.b-\
.	4c\	4e\	4a/
1BB-	2B-\	1d	2g/
.	2A/	.	2f/
=3	=3	=3	=3
1C	1G	1c	1e
1F	1A	1c	1f
=4	=4	=4	=4
0BB-	1.B-	2r	0d
.	.	1f	.
.	2A/	4e\	.
.	.	4d\	.
=5	=5	=5	=5
2C/	2G/	2c\	2e/
2D\	2F/	2B-\	1f
1C	1G	1c	.
.	.	.	2e/
=6	=6	=6	=6
1c	1F	1A	2r
.	.	.	2.f/
1A	1c	2.F/	.
.	.	.	4g/
.	.	.	4a/
.	.	4G/	4b-\
=7	=7	=7	=7
2r	2.F/	4A/	1cc
.	.	4B-\	.
2.F\	.	1c	.
.	4G/	.	.
.	4A/	.	1cc
4G\	4B-\	.	.
4A\	4c\	[2A/	.
4B-\	4d\	.	.
=8	=8	=8	=8
2c\	2e\	2A/]	1cc
4B-\	1f	1c	.
4A\	.	.	.
1G	.	.	1b-
.	2e\	2B-\	.
=9	=9	=9	=9
1.F	2f\	1c	1.a
.	4e\	.	.
.	4d\	.	.
.	2c\	2F/	.
2E\	[2c\	[2G/	2g/
=10	=10	=10	=10
1D	2c\]	2G/]	1f
.	2Bni\	2F/	.
1C	1c	2G/	1e
.	.	[2c\	.
=11	=11	=11	=11
0D	0F	2c\]	0f
.	.	4Bni\	.
.	.	4A/	.
.	.	1Bni	.
=12	=12	=12	=12
!LO:N:vis=0	!LO:N:vis=0	!LO:N:vis=0	!LO:N:vis=0
0C	0G	0c	0e
=13:|!	=13:|!	=13:|!	=13:|!
*>B	*>B	*>B	*>B
1F	2.F/	4F/	1cc
.	.	4G/	.
.	.	4A/	.
.	4G/	4B-\	.
4F\	4A/	2c\	1cc
4G\	4B-\	.	.
4A\	4c\	[2A/	.
4B-\	4d\	.	.
=14	=14	=14	=14
2c\	2e\	2A/]	1cc
4B-\	1f	1c	.
4A\	.	.	.
1G	.	.	1b-
.	2e\	2B-\	.
=15	=15	=15	=15
1.F	2f\	1c	1.a
.	4e\	.	.
.	4d\	.	.
.	2c\	2F/	.
2E\	[2c\	[2G/	2g/
=16	=16	=16	=16
1D	2c\]	2G/]	1f
.	2Bni\	2F/	.
1C	1c	2G/	1e
.	.	[2c\	.
=17	=17	=17	=17
0D	0F	2c\]	0f
.	.	4Bni\	.
.	.	4A/	.
.	.	1Bni	.
=18	=18	=18	=18
1C	1G	1c	0e
2r	1r	2.c\	.
[2c\	.	.	.
.	.	4B-\	.
=19	=19	=19	=19
4c\]	2.F/	4A/	1.a
4B-\	.	4G/	.
4A\	.	1F	.
4G\	4G/	.	.
2F\	4A/	.	.
.	4B-\	.	.
2E\	[2c\	[2G/	2g/
=20	=20	=20	=20
1D	2c\]	2G/]	1f
.	2Bni\	2F/	.
1C	1c	2G/	2e/
.	.	2A/	[2a/
=21	=21	=21	=21
1D	2A/	2F/	4a/]
.	.	.	4g/
.	2.d\	2.B-\	4f/
.	.	.	4e/
1BB-	.	.	1d
.	4c\	4c\	.
.	4B-\	2d\	.
.	4A/	.	.
=22	=22	=22	=22
2C/	2G/	2c\	2e/
2D\	2F/	2B-\	1f
1C	1G	1c	.
.	.	.	2e/
=23	=23	=23	=23
2r	0F	2.A/	0f
2.c\	.	.	.
.	.	4B-\	.
.	.	1c	.
4B-\	.	.	.
4A\	.	.	.
4G\	.	.	.
=24	=24	=24	=24
2F\	1c	1f	1a
2.F\	.	.	.
.	1c	1f	1a
4E\	.	.	.
4D\	.	.	.
4C/	.	.	.
=25	=25	=25	=25
1BB-	2.d\	2.f\	2.b-\
.	4c\	4e\	4a/
1BB-	2B-\	1d	2g/
.	2A/	.	2f/
=26	=26	=26	=26
1C	1G	1c	1e
1F	1A	1c	1f
=27	=27	=27	=27
0BB-	1.B-	2r	0d
.	.	1f	.
.	2A/	4e\	.
.	.	4d\	.
=28	=28	=28	=28
2C/	2G/	2c\	2e/
2D\	2F/	2B-\	1f
1C	1G	1c	.
.	.	.	2e/
=29	=29	=29	=29
1FF;	1F;	1A;	1f;
1r	1r	1r	1r
=30	=30	=30	=30
1F	1A	1c	1f
1F	1A	1c	1f
=31	=31	=31	=31
1BB-	1d	1.B-	1f
1BB-	1d	.	1f
.	.	4A/	.
.	.	4G/	.
=32	=32	=32	=32
1F	1c	1A	1f
1F	1c	1A	1f
=33	=33	=33	=33
1BB-	1.B-	1d	0f
1BB-	.	1d	.
.	4A/	.	.
.	4G/	.	.
=34	=34	=34	=34
0Fl	0Al	0cl	0fl
==	==	==	==
*-	*-	*-	*-
!!!RDF**kern: l=long note in original notation
!!!RDF**kern: i=editorial accidental
!!!ENC:	Jesse Rodin; Victoria Chang 2011/10/21
!!!END:	2011/10/21/
!!!EED:	Jesse Rodin
!!!EEV:	2011/12/16/
!!attribution-level@Jos: 3 (tricky)
!!!ONB:	Translated from MusicXML and edited on 2011/12/16/ by Craig Sapp
!!muse2ps: C^@{COA}?\n@{SCT}^i2I150v90,90,90,150Q16
